public/icons/bookmark.svg

<svg width="13" height="19" viewBox="0 0 13 19" fill="none" xmlns="http://www.w3.org/2000/svg">
<mask id="path-1-inside-1_288_47" fill="white">
<path fill-rule="evenodd" clip-rule="evenodd" d="M13 1C13 0.447715 12.5523 0 12 0H1C0.447715 0 0 0.447717 0 1V17.1129C0 17.9822 1.03263 18.4376 1.67444 17.8513L5.82556 14.0594C6.20751 13.7105 6.7925 13.7105 7.17444 14.0594L11.3256 17.8513C11.9674 18.4375 13 17.9822 13 17.1129V1Z"/>
</mask>
<path d="M11.3256 17.8513L12.6744 16.3746L11.3256 17.8513ZM5.82556 14.0594L7.17444 15.536L5.82556 14.0594ZM7.17444 14.0594L5.82556 15.536L7.17444 14.0594ZM1.67444 17.8513L0.32556 16.3746L1.67444 17.8513ZM1 2H12V-2H1V2ZM2 17.1129V1H-2V17.1129H2ZM3.02332 19.3279L7.17444 15.536L4.47668 12.5827L0.32556 16.3746L3.02332 19.3279ZM5.82556 15.536L9.97668 19.3279L12.6744 16.3746L8.52332 12.5827L5.82556 15.536ZM11 1V17.1129H15V1H11ZM9.97668 19.3279C11.9021 21.0868 15 19.7208 15 17.1129H11C11 16.2437 12.0326 15.7883 12.6744 16.3746L9.97668 19.3279ZM7.17444 15.536C6.7925 15.8849 6.20751 15.8849 5.82556 15.536L8.52332 12.5827C7.37749 11.536 5.62251 11.536 4.47668 12.5827L7.17444 15.536ZM-2 17.1129C-2 19.7208 1.09788 21.0868 3.02332 19.3279L0.32556 16.3746C0.967373 15.7883 2 16.2437 2 17.1129H-2ZM12 2C11.4477 2 11 1.55228 11 1H15C15 -0.656854 13.6569 -2 12 -2V2ZM1 -2C-0.656858 -2 -2 -0.656848 -2 1H2C2 1.55228 1.55229 2 1 2V-2Z" fill="white" mask="url(#path-1-inside-1_288_47)"/>
</svg>

<svg width="13" height="19" fill="none" xmlns="http://www.w3.org/2000/svg"><mask id="a" fill="#fff"><path fill-rule="evenodd" clip-rule="evenodd" d="M13 1a1 1 0 0 0-1-1H1a1 1 0 0 0-1 1v16.113c0 .87 1.033 1.325 1.674.738l4.152-3.792a1 1 0 0 1 1.348 0l4.152 3.792c.641.587 1.674.131 1.674-.738V1Z"/></mask><path d="m11.326 17.851 1.348-1.476-1.348 1.476Zm-5.5-3.792 1.348 1.477-1.348-1.477Zm1.348 0-1.348 1.477 1.348-1.477Zm-5.5 3.792L.326 16.375l1.348 1.476ZM1 2h11v-4H1v4Zm1 15.113V1h-4v16.113h4Zm1.023 2.215 4.151-3.792-2.697-2.953-4.151 3.792 2.697 2.953Zm2.803-3.792 4.15 3.792 2.698-2.953-4.15-3.792-2.698 2.953ZM11 1v16.113h4V1h-4ZM9.977 19.328C11.902 21.087 15 19.72 15 17.113h-4c0-.87 1.033-1.325 1.674-.738l-2.697 2.953Zm-2.803-3.792a1 1 0 0 1-1.348 0l2.697-2.953a3 3 0 0 0-4.046 0l2.697 2.953ZM-2 17.113c0 2.608 3.098 3.974 5.023 2.215L.326 16.375C.967 15.788 2 16.244 2 17.113h-4ZM12 2a1 1 0 0 1-1-1h4a3 3 0 0 0-3-3v4ZM1-2a3 3 0 0 0-3 3h4a1 1 0 0 1-1 1v-4Z" fill="#fff" mask="url(#a)"/></svg>
